public/visual-editor/lib/oojs-ui/images/icons/add-item.svg

<?xml version="1.0" encoding="utf-8"?>
<svg xmlns="http://www.w3.org/2000/svg" width="24" height="24" viewBox="0 0 24 24">
    <g id="add-item" opacity=".75">
        <path id="plus" d="M13 8h-2v3h-3v2h3v3h2v-3h3v-2h-3z"/>
    </g>
</svg>

<?xml version="1.0" encoding="UTF-8"?>
<!DOCTYPE svg PUBLIC "-//W3C//DTD SVG 1.1//EN" "http://www.w3.org/Graphics/SVG/1.1/DTD/svg11.dtd">
<svg version="1.1" xmlns="http://www.w3.org/2000/svg" xmlns:xlink="http://www.w3.org/1999/xlink" x="0px" y="0px" width="24" height="24" viewBox="0, 0, 24, 24">
  <g id="add-item">
    <path d="M13,8 L11,8 L11,11 L8,11 L8,13 L11,13 L11,16 L13,16 L13,13 L16,13 L16,11 L13,11 z" fill="#000000"/>
  </g>
  <defs/>
</svg>
